X: 2105
T: the HOUSE OF ACHLUNCART
C:
Q: "Reel."
R: Reel.
%R: reel
N: This is version 2, for ABC software that understands voice overlays.
B: James Kerr "Merry Melodies" v.2 p.13 #105
Z: 2016 John Chambers <jc:trillian.mit.edu>
M: C
L: 1/8
K: C
uc |\
c2c2 ecge | c2c2 dBGB |\
c2c2 ecgc | Bddc BGG :|\
c |:\
c2(Gc) EcGc | EcGc dDD"^2nd"f & x7 "_1st"B |\
[1 c2(Gc) EcGc | fedc BGGB :|\
[2 afge fdec | Bcde dBG |]
